X: 7936
T: Concrete Cow, The
R: reel
M: 4/4
K: Edorian
|:BEE2 DEFD|EBB2 cBAc|BEE2 EFED|B,CDE FEFA|
BEE2 DEFD|EBB2 cBAc|Bcef ^g2ge|fa^ge fece:|
|:^gecA B2ge|be^ge fece|^gee2 gee2|fa^ge fece|
^gecA B2ge|be^ge fece|a3f ^g2ge|fa^ge fecA:|

